X: 114
T: Cantantibus organis – Largo
C: Franciszek Walczyński
%%abc-version 2.0
%%abcx-abcm2ps-target-version 5.9.1 (29 Sep 2008)
%%abc-creator hum2abc beta
%%abcx-conversion-date 2021/10/04 07:38:38
%%abc-edited-by Andrzej Borzym
%%abc-edited-by Krzysztof Stępień
%%abcx-initial-encoding-date 2021-07-27
%%humdrum-veritas 4145178092
%%humdrum-veritas-data 1247060041
%%linebreak <none>
%%barnumbers 0
L: 1/8
M: 3/4
N: Derived from pl-kozmzk--mzk-m-346--016_walczynski-franciszek--cantantibus-organis-largo.krn
Q: "Largo."
%%staves {1 2}
V: 1 clef=treble
V: 2 clef=bass
K: D
[V:1] d2!accent!c3c & F2G4- | 
[V:2] A,6- & D,2E,4 | 
[V:1] e2!accent!d3d & G2F4 | 
[V:2] A,6 & C,2D,4 | 
[V:1] c2>F2cd & E6 | 
[V:2] ^A,6 & F,6 | 
[V:1] B4z2 & D4x2 | 
[V:2] B,4z2 & G,4C,D, | 
[V:1] B2>A2 GF & F6- | 
[V:2] B,6- & ^D,6 | 
[V:1] A2G.B,.C.D & F2E zz2 | 
[V:2] B,2-B, zz2 & E,2-E, zz2 | 
[V:1] F4E2 & D4C2 | 
[V:2] z A, ^G,A,=G,A, & A,,6 | 
[V:1] D4z2 & D4z2 ||  
[V:2] F,4z2 & D,4z2 ||  
[V:1] F4-FG | 
[V:2] z .^A, B,C .D z & x F, ^G,A, B, x | 
[V:1] A4-AB/c/ | 
[V:2] z [C=A,] [DB,][EC] [FD] z & z6 | 
[V:1] d4cB | 
[V:2] z [^G,E,] [A,F,][B,G,] [CA,][FD] & z2z2z D, | 
[V:1] A^G !fermata!A !accent!B!accent!=G!accent!E & ED C zz2 | 
[V:2] CB, A, !accent!B,!accent!=G,!accent!E, & E,2!fermata!A,, zz2 | 
[V:1] B2!accent!c3c & F2G4 | 
[V:2] A,6- & D,2E,4 | 
[V:1] e2!accent!d3d & G2F4 | 
[V:2] A,4B,2 & C,2D,2B,,2 | 
[V:1] f2>e2 dc & F6- | 
[V:2] ^A,4B,E & F,6 | 
[V:1] e2d4 & F6 | 
[V:2] D6 & B,4=A,2 | 
[V:1] d2!accent!^G3G & =F2F3F | 
[V:2] B,2D3D & ^G,2!accent!B,3B, | 
[V:1] A4F2 & ^F4D2- | 
[V:2] D4A,2 & A,4A,,2 | 
[V:1] G2F2E2 & D4DC | 
[V:2] B,2A,2=G,2 & A,,6 | 
[V:1] D6 & D6 | 
[V:2] F,6 & D,6 | 
[V:1] !accent!d2>B2 dB & B2>G2 BG | 
[V:2] D6- & z6 | 
[V:1] A4F2 & F4D2 | 
[V:2] D6 & z6 | 
[V:1] A4G2 & C2D2E2 | 
[V:2] A,6- & A,,2B,,2C,2 | 
[V:1] F>GA4 & D6 | 
[V:2] A,6 & D,>E,F,4 | 
[V:1] [D2B,2]>[B,2G,2] [DB,][B,G,] | 
[V:2] [D,6-G,,6] | 
[V:1] [A,4F,4][F,2D,2] | 
[V:2] [D,6D,,6] | 
[V:1] B2>A2 GF & ^D6 | 
[V:2] F,2>=C2 B,A, & B,,6 | 
[V:1] G2>B,2 .C.D & E2>z2z2 | 
[V:2] G,2>z2z2 & E,2>z2z2 | 
[V:1] F4EF & D4C2 | 
[V:2] A,4G,2 & z A,,^G,,A,,A,,2 | 
[V:1] D6- & D6- | 
[V:2] [F,2D,2][G,2E,2][A,2F,2] & [D,6D,,6]- | 
[V:1] DDD2E2 & DDD4- | 
[V:2] [_B,G,][B,G,][B,4G,4] & [D,6D,,6]- | 
[V:1] !fermata!F6 & D6 |]  
[V:2] A,6 & [D,6D,,6] |]  


